X: 4062
T: MISS HOPE
R: Strathspey.
%R: strathspey
B: James Kerr "Merry Melodies" v.4 p.09 #62
Z: 2016 John Chambers <jc:trillian.mit.edu>
M: C
L: 1/8
K: D
|:\
vD>vFuA>uB A>GF>D | d2f>d (e<E)E2 |\
D>FA>B A>GF>D | G>BA>F D/D/D D2 ::\
d>cd>e d>fe>d | c>de>f g<f e>c |\
d>cd>e f>ed>A | G>BA>F D/D/D D2 :|

%%sep 1 1 500
%%sep 1 1 500

